amazon.svg

<svg xmlns:dc="http://purl.org/dc/elements/1.1/" xmlns:cc="http://creativecommons.org/ns#" xmlns:rdf="http://www.w3.org/1999/02/22-rdf-syntax-ns#" xmlns:svg="http://www.w3.org/2000/svg" xmlns="http://www.w3.org/2000/svg" xmlns:sodipodi="http://sodipodi.sourceforge.net/DTD/sodipodi-0.dtd" xmlns:inkscape="http://www.inkscape.org/namespaces/inkscape" version="1.0" width="1000" height="301.354" viewBox="0 0 1000 301.35401" id="svg1936" inkscape:version="0.91 r13725" xmlns:xlink="http://www.w3.org/1999/xlink">
 <metadata id="metadata21">
  <rdf:RDF>
   <cc:Work rdf:about="">
    <dc:format>
     image/svg+xml
    </dc:format>
    <dc:type rdf:resource="http://purl.org/dc/dcmitype/StillImage">
    </dc:type>
    <dc:title>
    </dc:title>
   </cc:Work>
  </rdf:RDF>
 </metadata>
 <sodipodi:namedview pagecolor="#ffffff" bordercolor="#666666" borderopacity="1" objecttolerance="10" gridtolerance="10" guidetolerance="10" inkscape:pageopacity="0" inkscape:pageshadow="2" inkscape:window-width="1366" inkscape:window-height="705" id="namedview19" showgrid="false" inkscape:zoom="0.72245926" inkscape:cx="426.12453" inkscape:cy="94.816171" inkscape:window-x="-8" inkscape:window-y="-8" inkscape:window-maximized="1" inkscape:current-layer="svg1936">
 </sodipodi:namedview>
 <defs id="defs1938">
 </defs>
 <path d="m 620.38044,235.66818 c -58.11169,42.83292 -142.34105,65.68583 -214.86092,65.68583 -101.68461,0 -193.22683,-37.60937 -262.48206,-100.16107 -5.44116,-4.91885 -0.5659,-11.62235 5.96353,-7.79179 74.7399,43.48586 167.15276,69.64701 262.61265,69.64701 64.37988,0 135.20216,-13.32001 200.32209,-40.96113 9.83763,-4.17885 18.06468,6.44234 8.44471,13.58115" id="path8" style="fill:#ff9900;fill-opacity:1;fill-rule:evenodd;stroke:none" inkscape:connector-curvature="0">
 </path>
 <path d="m 644.53924,208.02705 c -7.40002,-9.4894 -49.10114,-4.48353 -67.81875,-2.26353 -5.70237,0.69648 -6.57292,-4.26588 -1.43649,-7.83531 33.21291,-23.37526 87.71169,-16.6282 94.06697,-8.79293 6.35527,7.87883 -1.65411,62.5082 -32.86468,88.58226 -4.78823,4.00469 -9.35881,1.87178 -7.22586,-3.43882 7.00822,-17.49881 22.72234,-56.71874 15.27881,-66.25167" id="path10" style="fill:#ff9900;fill-opacity:1;fill-rule:evenodd;stroke:none" inkscape:connector-curvature="0">
 </path>
 <path d="m 578.02637,32.908411 0,-22.722322 c 0,-3.4388179 2.61176,-5.7458719 5.74588,-5.7458719 l 101.72809,0 c 3.26472,0 5.87648,2.350589 5.87648,5.7458719 l 0,19.457626 c -0.0435,3.264696 -2.78588,7.530573 -7.66119,14.277622 l -52.71404,75.262273 c 19.58823,-0.47879 40.26468,2.43764 58.02466,12.4494 4.00469,2.26352 5.09293,5.57175 5.39763,8.83648 l 0,24.24586 c 0,3.30822 -3.65647,7.1823 -7.48705,5.17997 -31.29762,-16.41058 -72.86816,-18.19528 -107.474,0.17413 -3.52587,1.9153 -7.22586,-1.91528 -7.22586,-5.22353 l 0,-23.02702 c 0,-3.69999 0.0435,-10.01178 3.74349,-15.62706 l 61.07171,-87.581077 -53.14934,0 c -3.2647,0 -5.87646,-2.307035 -5.87646,-5.702352" id="path12" style="fill:#000000;fill-rule:evenodd;stroke:none" inkscape:connector-curvature="0">
 </path>
 <path d="m 206.93856,174.68354 -30.94937,0 c -2.95998,-0.21762 -5.31057,-2.43762 -5.52823,-5.26706 l 0,-158.838596 c 0,-3.1776439 2.6553,-5.7023669 5.96352,-5.7023669 l 28.85996,0 c 3.00356,0.1305 5.39764,2.437637 5.61531,5.3105719 l 0,20.763532 0.56588,0 C 218.9962,10.88256 233.14323,1.5237471 252.2091,1.5237471 c 19.37056,0 31.47173,9.3588129 40.1776,29.4258739 7.48705,-20.067061 24.50702,-29.4258739 42.74584,-29.4258739 12.97175,0 27.16232,5.354111 35.82467,17.3682159 9.7941,13.363512 7.79174,32.777604 7.79174,49.797606 l -0.0435,100.248121 c 0,3.17763 -2.6553,5.74585 -5.96352,5.74585 l -30.90587,0 c -3.09056,-0.21762 -5.57173,-2.69879 -5.57173,-5.74585 l 0,-84.185796 c 0,-6.703515 0.60937,-23.418792 -0.8706,-29.774097 -2.30705,-10.664664 -9.22821,-13.66822 -18.19529,-13.66822 -7.48705,0 -15.32232,5.00588 -18.49997,13.015301 -3.17765,8.009403 -2.87294,21.416417 -2.87294,30.427016 l 0,84.185796 c 0,3.17763 -2.65529,5.74585 -5.96353,5.74585 l -30.90582,0 c -3.13412,-0.21762 -5.57177,-2.69879 -5.57177,-5.74585 l -0.0435,-84.185796 c 0,-17.716441 2.91643,-43.790545 -19.06586,-43.790545 -22.24353,0 -21.37294,25.421136 -21.37294,43.790545 l 0,84.185796 c 0,3.17763 -2.6553,5.74585 -5.96352,5.74585" id="path14" style="fill:#000000;fill-rule:evenodd;stroke:none" inkscape:connector-curvature="0">
 </path>
 <path d="m 778.9579,1.5237471 c 45.92348,0 70.77872,39.4376019 70.77872,89.5834349 0,48.448168 -27.46705,86.884588 -70.77872,86.884588 -45.09643,0 -69.647,-39.4376 -69.647,-88.582238 0,-49.449363 24.85527,-87.8857849 69.647,-87.8857849 m 0.26116,32.4293949 c -22.80937,0 -24.24586,31.079935 -24.24586,50.450525 0,19.414093 -0.3047,60.854033 23.9847,60.854033 23.98467,0 25.11645,-33.43052 25.11645,-53.802307 0,-13.407014 -0.56589,-29.425821 -4.61414,-42.136414 -3.48235,-11.056426 -10.40349,-15.365837 -20.24115,-15.365837" id="path16" style="fill:#000000;fill-rule:evenodd;stroke:none" inkscape:connector-curvature="0">
 </path>
 <path d="m 909.2848,174.68354 -30.81878,0 c -3.0906,-0.21762 -5.57177,-2.69879 -5.57177,-5.74585 l -0.0435,-158.882188 c 0.26118,-2.9164689 2.82943,-5.1799849 5.96353,-5.1799849 l 28.68587,0 c 2.69879,0.1305 4.91879,1.958823 5.52823,4.439997 l 0,24.2893669 0.56585,0 C 922.2566,11.88374 934.40125,1.5237471 955.77417,1.5237471 c 13.88587,0 27.42351,5.005884 36.12938,18.7176239 C 1000,32.951945 1000,54.324878 1000,69.690715 l 0,99.986975 c -0.34822,2.78585 -2.91647,5.00585 -5.96349,5.00585 l -31.03645,0 c -2.82943,-0.21762 -5.18002,-2.30703 -5.48469,-5.00585 l 0,-86.275201 c 0,-17.368215 2.00234,-42.789384 -19.37059,-42.789384 -7.53056,0 -14.45174,5.049433 -17.89056,12.710576 -4.35292,9.707072 -4.91881,19.37059 -4.91881,30.078808 l 0,85.535201 c -0.0435,3.17763 -2.74234,5.74585 -6.05056,5.74585" id="path18" style="fill:#000000;fill-rule:evenodd;stroke:none" inkscape:connector-curvature="0">
 </path>
 <path d="m 496.93116,98.811876 c 0,12.057624 0.3047,22.112904 -5.78941,32.821134 -4.91881,8.7059 -12.75409,14.06 -21.41642,14.06 -11.88352,0 -18.84822,-9.05413 -18.84822,-22.41764 0,-26.378783 23.63643,-31.167007 46.05405,-31.167007 l 0,6.703513 m 31.21056,75.436374 c -2.04586,1.82823 -5.00589,1.95881 -7.31293,0.74001 -10.27295,-8.53175 -12.1447,-12.49291 -17.75998,-20.6329 -16.97646,17.32467 -29.03411,22.50465 -51.01643,22.50465 -26.07409,0 -46.31522,-16.06234 -46.31522,-48.2305 0,-25.11646 13.58118,-42.223499 32.99527,-50.581131 16.80232,-7.400017 40.26461,-8.705874 58.19873,-10.751751 l 0,-4.004701 c 0,-7.356485 0.56589,-16.062359 -3.78705,-22.417613 -3.74352,-5.702369 -10.96942,-8.052955 -17.36822,-8.052955 -11.79647,0 -22.28702,6.050579 -24.85527,18.587033 -0.52235,2.785898 -2.56821,5.528247 -5.39765,5.658834 L 415.53126,53.846031 C 413.00654,53.28018 410.17715,51.23427 410.91715,47.360188 417.79479,10.969646 450.703,2.1708008e-4 480.12882,2.1708008e-4 c 15.06117,0 34.73643,4.00471001992 46.61995,15.40939391992 15.06114,14.059982 13.62469,32.821137 13.62469,53.236424 l 0,48.230525 c 0,14.4953 6.00705,20.85055 11.66586,28.68587 1.95885,2.78585 2.39414,6.13761 -0.13071,8.22702 -6.31175,5.26708 -17.54234,15.06118 -23.7235,20.54587 l -0.0435,-0.0872" id="path28" style="fill:#000000;fill-rule:evenodd;stroke:none" inkscape:connector-curvature="0">
 </path>
 <path d="m 91.194013,98.811876 c 0,12.057624 0.304675,22.112904 -5.789406,32.821134 -4.918845,8.7059 -12.710593,14.06 -21.416467,14.06 -11.883518,0 -18.804673,-9.05413 -18.804673,-22.41764 0,-26.378783 23.636433,-31.167007 46.010546,-31.167007 l 0,6.703513 m 31.210537,75.436374 c -2.04587,1.82823 -5.0059,1.95881 -7.31295,0.74001 -10.2729,-8.53175 -12.10116,-12.49291 -17.759972,-20.6329 C 80.355174,171.68003 68.341102,176.86001 46.315217,176.86001 20.284648,176.86001 -2.141151e-6,160.79767 -2.141151e-6,128.62951 -2.141151e-6,103.51305 13.624684,86.406011 32.995241,78.048379 49.79757,70.648362 73.259897,69.342505 91.194013,67.296628 l 0,-4.004701 c 0,-7.356485 0.565884,-16.062359 -3.743527,-22.417613 -3.78708,-5.702369 -11.012928,-8.052955 -17.368233,-8.052955 -11.796431,0 -22.330559,6.050579 -24.898786,18.587033 -0.522364,2.785898 -2.568242,5.528247 -5.354107,5.658834 L 9.7941042,53.846031 C 7.2693961,53.28018 4.4835138,51.23427 5.1799844,47.360188 12.101156,10.969646 44.965811,2.1708008e-4 74.391681,2.1708008e-4 c 15.061131,0 34.736399,4.00471001992 46.619919,15.40939391992 15.06117,14.059982 13.62468,32.821137 13.62468,53.236424 l 0,48.230525 c 0,14.4953 6.00708,20.85055 11.6659,28.68587 2.00234,2.78585 2.43763,6.13761 -0.0871,8.22702 -6.31175,5.26708 -17.54231,15.06118 -23.72351,20.54587 l -0.087,-0.0872" id="path30" style="fill:#000000;fill-rule:evenodd;stroke:none" inkscape:connector-curvature="0">
 </path>
</svg>

<?xml version="1.0" encoding="UTF-8" standalone="no"?>
<!DOCTYPE svg PUBLIC "-//W3C//DTD SVG 1.1//EN" "http://www.w3.org/Graphics/SVG/1.1/DTD/svg11.dtd">
<svg width="100%" height="100%" viewBox="0 0 1800 200" version="1.1" xmlns="http://www.w3.org/2000/svg" xmlns:xlink="http://www.w3.org/1999/xlink" xml:space="preserve" xmlns:serif="http://www.serif.com/" style="fill-rule:evenodd;clip-rule:evenodd;stroke-linejoin:round;stroke-miterlimit:2;">
    <g id="Amazon">
        <g id="path8" transform="matrix(0.659738,0,0,0.659738,-7.28552e-07,7.38641e-05)">
            <path d="M620.38,235.668C562.269,278.501 478.039,301.354 405.52,301.354C303.835,301.354 212.293,263.745 143.037,201.193C137.596,196.274 142.472,189.571 149.001,193.401C223.741,236.887 316.154,263.048 411.614,263.048C475.994,263.048 546.816,249.728 611.936,222.087C621.773,217.908 630,228.529 620.38,235.668" style="fill:rgb(255,153,0);"/>
        </g>
        <g id="path10" transform="matrix(0.659738,0,0,0.659738,-7.28552e-07,7.38641e-05)">
            <path d="M644.539,208.027C637.139,198.538 595.438,203.544 576.72,205.764C571.018,206.46 570.148,201.498 575.284,197.928C608.497,174.553 662.996,181.3 669.351,189.135C675.706,197.014 667.697,251.643 636.486,277.718C631.698,281.722 627.127,279.589 629.26,274.279C636.269,256.78 651.983,217.56 644.539,208.027" style="fill:rgb(255,153,0);"/>
        </g>
        <g id="path12" transform="matrix(0.659738,0,0,0.659738,-7.28552e-07,7.38641e-05)">
            <path d="M578.026,32.908L578.026,10.186C578.026,6.747 580.638,4.44 583.772,4.44L685.5,4.44C688.765,4.44 691.377,6.791 691.377,10.186L691.377,29.644C691.333,32.908 688.591,37.174 683.716,43.921L631.002,119.184C650.59,118.705 671.266,121.621 689.026,131.633C693.031,133.897 694.119,137.205 694.424,140.469L694.424,164.715C694.424,168.024 690.767,171.898 686.937,169.895C655.639,153.485 614.069,151.7 579.463,170.069C575.937,171.985 572.237,168.154 572.237,164.846L572.237,141.819C572.237,138.119 572.28,131.807 575.98,126.192L637.052,38.611L583.903,38.611C580.638,38.611 578.026,36.304 578.026,32.908"/>
        </g>
        <g id="path14" transform="matrix(0.659738,0,0,0.659738,-7.28552e-07,7.38641e-05)">
            <path d="M206.939,174.684L175.989,174.684C173.029,174.466 170.679,172.246 170.461,169.416L170.461,10.578C170.461,7.4 173.116,4.876 176.424,4.876L205.284,4.876C208.288,5.006 210.682,7.313 210.9,10.186L210.9,30.95L211.466,30.95C218.996,10.883 233.143,1.524 252.209,1.524C271.58,1.524 283.681,10.883 292.387,30.95C299.874,10.883 316.894,1.524 335.133,1.524C348.104,1.524 362.295,6.878 370.957,18.892C380.751,32.255 378.749,51.67 378.749,68.69L378.705,168.938C378.705,172.115 376.05,174.684 372.742,174.684L341.836,174.684C338.746,174.466 336.264,171.985 336.264,168.938L336.264,84.752C336.264,78.048 336.874,61.333 335.394,54.978C333.087,44.313 326.166,41.31 317.198,41.31C309.711,41.31 301.876,46.315 298.698,54.325C295.521,62.334 295.826,75.741 295.826,84.752L295.826,168.938C295.826,172.115 293.17,174.684 289.862,174.684L258.956,174.684C255.822,174.466 253.384,171.985 253.384,168.938L253.341,84.752C253.341,67.035 256.257,40.961 234.275,40.961C212.032,40.961 212.902,66.382 212.902,84.752L212.902,168.938C212.902,172.115 210.247,174.684 206.939,174.684"/>
        </g>
        <g id="path16" transform="matrix(0.659738,0,0,0.659738,-7.28552e-07,7.38641e-05)">
            <path d="M778.958,1.524C824.881,1.524 849.737,40.961 849.737,91.107C849.737,139.555 822.27,177.992 778.958,177.992C733.861,177.992 709.311,138.554 709.311,89.41C709.311,39.96 734.166,1.524 778.958,1.524M779.219,33.953C756.41,33.953 754.973,65.033 754.973,84.404C754.973,103.818 754.669,145.258 778.958,145.258C802.943,145.258 804.074,111.827 804.074,91.455C804.074,78.048 803.508,62.03 799.46,49.319C795.978,38.263 789.057,33.953 779.219,33.953"/>
        </g>
        <g id="path18" transform="matrix(0.659738,0,0,0.659738,-7.28552e-07,7.38641e-05)">
            <path d="M909.285,174.684L878.466,174.684C875.375,174.466 872.894,171.985 872.894,168.938L872.851,10.056C873.112,7.139 875.68,4.876 878.814,4.876L907.5,4.876C910.199,5.006 912.419,6.834 913.028,9.316L913.028,33.605L913.594,33.605C922.257,11.884 934.401,1.524 955.774,1.524C969.66,1.524 983.198,6.53 991.904,20.241C1000,32.952 1000,54.325 1000,69.691L1000,169.678C999.652,172.464 997.084,174.684 994.037,174.684L963,174.684C960.171,174.466 957.82,172.377 957.515,169.678L957.515,83.402C957.515,66.034 959.518,40.613 938.145,40.613C930.614,40.613 923.693,45.663 920.254,53.324C915.901,63.031 915.335,72.694 915.335,83.402L915.335,168.938C915.292,172.115 912.593,174.684 909.285,174.684"/>
        </g>
        <g id="path28" transform="matrix(0.659738,0,0,0.659738,-7.28552e-07,7.38641e-05)">
            <path d="M496.931,98.812C496.931,110.87 497.236,120.925 491.142,131.633C486.223,140.339 478.388,145.693 469.725,145.693C457.842,145.693 450.877,136.639 450.877,123.275C450.877,96.897 474.514,92.108 496.931,92.108L496.931,98.812M528.142,174.248C526.096,176.076 523.136,176.207 520.829,174.988C510.556,166.457 508.684,162.495 503.069,154.355C486.092,171.68 474.035,176.86 452.052,176.86C425.978,176.86 405.737,160.798 405.737,128.63C405.737,103.513 419.318,86.406 438.732,78.048C455.535,70.648 478.997,69.343 496.931,67.297L496.931,63.292C496.931,55.935 497.497,47.23 493.144,40.874C489.401,35.172 482.175,32.821 475.776,32.821C463.979,32.821 453.489,38.872 450.921,51.408C450.398,54.194 448.352,56.937 445.523,57.067L415.531,53.846C413.007,53.28 410.177,51.234 410.917,47.36C417.795,10.97 450.703,0 480.129,0C495.19,0 514.865,4.005 526.749,15.41C541.81,29.47 540.373,48.231 540.373,68.646L540.373,116.877C540.373,131.372 546.381,137.727 552.039,145.562C553.998,148.348 554.433,151.7 551.909,153.789C545.597,159.057 534.366,168.851 528.185,174.335L528.142,174.248"/>
        </g>
        <g id="path30" transform="matrix(0.659738,0,0,0.659738,-7.28552e-07,7.38641e-05)">
            <path d="M91.194,98.812C91.194,110.87 91.499,120.925 85.405,131.633C80.486,140.339 72.694,145.693 63.988,145.693C52.105,145.693 45.183,136.639 45.183,123.275C45.183,96.897 68.82,92.108 91.194,92.108L91.194,98.812M122.405,174.248C120.359,176.076 117.399,176.207 115.092,174.988C104.819,166.457 102.99,162.495 97.332,154.355C80.355,171.68 68.341,176.86 46.315,176.86C20.285,176.86 -0,160.798 -0,128.63C-0,103.513 13.625,86.406 32.995,78.048C49.798,70.648 73.26,69.343 91.194,67.297L91.194,63.292C91.194,55.935 91.76,47.23 87.45,40.874C83.663,35.172 76.438,32.821 70.082,32.821C58.286,32.821 47.752,38.872 45.183,51.408C44.661,54.194 42.615,56.937 39.829,57.067L9.794,53.846C7.269,53.28 4.484,51.234 5.18,47.36C12.101,10.97 44.966,0 74.392,0C89.453,0 109.128,4.005 121.012,15.41C136.073,29.47 134.636,48.231 134.636,68.646L134.636,116.877C134.636,131.372 140.643,137.727 146.302,145.562C148.305,148.348 148.74,151.7 146.215,153.789C139.903,159.057 128.673,168.851 122.492,174.335L122.405,174.248"/>
        </g>
    </g>
</svg>
